!!!!SEGMENT: pl-wtm--r-1226--006_lodwigowski-edward-stefan--mila-zosiu-dzis-niedziela.krn
!!!cenid: 18xx:1922
!!!COM: Łodwigowski, Edward Stefan
!!!COM-rismID: pe30111147
!!!CDT: 1815/08/14-1895/11/12
!!!CNT: Polish
!!!OTL: Miła Zosiu dziś niedziela
!!!PDT:
!!!AGN:
!!!SMS-siglum: PL-Wtm
!!!SMS-shelfmark: R 1226
!!!SMS-shelfwork: 006 W
!!!SMS-variant:
!!!SMS-altvar:
!!!NIFC-rismSourceID: 1001083985
!!!NIFC-islandoraID:
!!!URL-pdf-islandora:
!!!URL-scan:
!!!ONB-nifc: UWAGA: No. 54
!!!OMD: Allegretto
!!!AIN: 1 empty
!!!key:
**kern	**fing	**kern	**fing	**dynam
*part1	*part1	*part1	*part1	*part1
*staff2	*staff2	*staff1	*staff1	*
*>[A,A,B,B]	*>[A,A,B,B]	*>[A,A,B,B]	*>[A,A,B,B]	*>[A,A,B,B]
*>A	*>A	*>A	*>A	*>A
*Iempty	*	*Iforte	*	*
*	*	*I"Fortepian	*	*
*clefF4	*	*clefG2	*	*
*k[f#c#]	*	*k[f#c#]	*	*
*D:	*	*D:	*	*
*M2/4	*	*M2/4	*	*
*all\right	*	*all\right	*	*
=1	=1	=1	=1	=1
*^	*	*	*	*
*2\right	*2\right	*below	*	*	*
!	!	!	!LO:TX:Bi:t=No 54.	!	!
!	!LO:N:vis=2	!	!LO:TX:i:t=Miła Zosiu dziś niedziela. Krakowiak. P.L.P.	!	!LO:DY:rj
2D/	8D\L	4	(8dd\L	1	p
.	8A 8F#\	.	8ff#\J)	3	.
.	8A 8F#\	.	8ff#'\L	2	.
.	.	.	(8ggq	.	.
.	8AJ 8F#\	.	(16ff#\L)	.	.
.	.	.	16ee#X\JJ)	.	.
=2	=2	=2	=2	=2	=2
!	!LO:N:vis=2	!	!	!	!
2D/	8D\L	.	(8ff#\L	.	.
.	8A 8F#\	.	8gg\	.	.
.	8A 8F#\	.	8aa\	.	.
.	8AJ 8F#\	.	8bb\J	.	.
=3	=3	=3	=3	=3	=3
!	!LO:N:vis=2	!	!	!	!
2AA/	8AA\L	.	8gg\L	.	.
.	8G 8C#\	.	8ff#\	.	.
.	8G 8C#\	.	8ee\	.	.
.	8GJ 8C#\	.	8aa\J	.	.
=4	=4	=4	=4	=4	=4
!	!LO:N:vis=2	!	!	!	!
2D/	8D\L	.	4ff#\	.	.
.	8A 8F#\	.	.	.	.
.	8A 8F#\	.	8dd|\)	.	.
.	8AJ 8F#\	.	8r	.	.
=5:|!|:	=5:|!|:	=5:|!|:	=5:|!|:	=5:|!|:	=5:|!|:
*>B	*>B	*>B	*>B	*>B	*>B
!	!LO:N:vis=2	!	!	!	!
2D/	8D\L	.	(8gg\L	3	f
.	8B 8G\	.	8bb'\J)	5	.
.	8B 8G\	.	8bb^\L	5	.
.	8BJ 8G\	.	(16aa\L	.	.
.	.	.	16gg\JJ)	.	.
=6	=6	=6	=6	=6	=6
!	!LO:N:vis=2	!	!	!	!
2D/	8D\L	.	(8ff#\L	2	.
.	8A 8F#\	.	8aa'\J)	.	.
.	8A 8F#\	.	(8aa^\L	.	.
.	8AJ 8F#\	.	16gg\L	.	.
.	.	.	16ff#\JJ)	.	.
!!LO:LB:g=original
=7	=7	=7	=7	=7	=7
!	!LO:N:vis=2	!	!	!	!
2AA/	8AA\L	.	(8ee\L	.	.
.	8G 8C#\	.	8gg'\J)	.	.
.	8G 8C#\	.	(8gg^\L	.	.
.	8GJ 8C#\	.	16ff#\L	.	.
.	.	.	16ee\JJ)	.	.
=8	=8	=8	=8	=8	=8
!	!LO:N:vis=2	!	!	!	!
2D/	8D\L	.	8ff#'\L	.	.
.	8A 8F#\	.	8aa'\J	.	.
.	8A 8F#\	.	4ddd^\	.	sf
.	8AJ 8F#\	.	.	.	.
=9	=9	=9	=9	=9	=9
!	!LO:N:vis=2	!	!	!	!
2D/	8D\L	.	(8gg\L	1	.
.	8B 8G\	.	8bb\J)	3	.
.	8B 8G\	.	8bb^\L	.	.
.	8BJ 8G\	.	(16aa\L	.	.
.	.	.	16gg\JJ)	.	.
=10	=10	=10	=10	=10	=10
!	!LO:N:vis=2	!	!	!	!
2D/	8D\L	.	(8ff#\L	2	.
.	8A 8F#\	.	8aa\J)	4	.
.	8A 8F#\	.	(8aa^\L	.	.
.	8AJ 8F#\	.	16gg\L	.	.
.	.	.	16ff#\JJ)	.	.
=11	=11	=11	=11	=11	=11
!	!LO:N:vis=2	!	!	!	!
2AA/	8AA\L	.	(8ee\L	1	.
.	8G 8C#\	.	8gg\J)	3	.
.	8G 8C#\	.	8gg^\L	4	.
.	8GJ 8C#\	.	(16ff#\L	.	.
.	.	.	16ee\JJ)	.	.
*v	*v	*	*	*	*
=12	=12	=12	=12	=12
8F#L 8D'\	.	4dd\	.	.
8A 8F#'\	.	.	.	.
8F#J 8D'\	.	8dd'\	.	.
8r	.	8r	.	.
=:|!	=:|!	=:|!	=:|!	=:|!
*-	*-	*-	*-	*-
!!!system-decoration: {p1}
!!!RDF**kern: > = above
!!!RDF**kern: < = below
!!!RDF**kern: | = vertical stroke
!!!ENC: Andrzej Kubiczek
!!!END: 2021-05-01
!!!ENC: Andrzej Gręziak
!!!END: 2021-04-17
!!!YEC: Copyright 2022 Narodowy Instytut Fryderyka Chopina (https://polishscores.org)
!!!YEM: Licence CC BY 4.0 (https://creativecommons.org/licenses/by/4.0)
